src/assets/insurance.svg

<svg width="95" height="96" viewBox="0 0 95 96" fill="none" xmlns="http://www.w3.org/2000/svg">
<g clip-path="url(#clip0_433_368)">
<path d="M45.6517 45.9451C38.5369 38.8399 31.2527 31.9005 24.3693 24.5758C18.8906 18.7467 19.5848 9.62399 25.4022 4.07246C28.1448 1.44867 31.7925 -0.0107179 35.5831 -0.000680992C39.3737 0.00935594 43.0138 1.48804 45.7425 4.12632C47.1142 5.46449 47.7588 5.62606 49.2173 4.18846C52.5227 0.944546 56.547 -0.542763 61.2406 0.269252C60.8687 1.00255 61.5919 0.836835 61.848 0.944552C72.3921 5.3692 74.0117 19.2812 66.5581 26.1791C60.2077 32.058 54.2869 38.4049 48.143 44.5116C47.4696 45.1828 46.9532 46.3055 45.6517 45.9451Z" fill="#2ECC82"/>
<path d="M52.4512 82.6764C52.4512 77.0254 52.4512 71.3744 52.4512 65.7235C52.4512 60.7975 54.5459 56.9197 58.6858 54.3138C62.8258 51.7079 67.1806 49.2595 71.4239 46.724C72.5394 46.057 73.6095 45.3113 74.6961 44.5987C75.2059 44.3842 75.7564 44.2842 76.3089 44.3056C76.8613 44.3271 77.4025 44.4695 77.8942 44.723C79.2783 45.3817 79.8194 44.8638 80.2574 43.5464C81.6911 39.246 83.034 34.9125 84.4181 30.5956C84.9511 28.9384 85.6866 27.3641 87.3103 26.5106C88.6118 25.8353 89.9669 25.2968 91.3345 26.4112C94.3713 27.5795 95.5324 29.6386 94.7225 32.6919C92.351 41.6282 89.9298 50.5562 87.5417 59.4884C87.1973 60.6822 86.5088 61.7473 85.5626 62.55C82.5258 65.3216 79.6087 68.2631 76.3654 70.7737C73.3781 73.0896 71.8205 75.7701 72.2337 79.5816C72.306 80.6115 72.3226 81.6446 72.2833 82.6764C71.6346 83.4677 70.709 83.4221 69.8331 83.4262C64.8558 83.4649 59.8787 83.4649 54.9013 83.4262C54.0213 83.4055 53.0998 83.4511 52.4512 82.6764Z" fill="#DEDEDE"/>
<path d="M20.2954 44.5614C24.9807 47.8136 30.0172 50.4858 34.9298 53.3651C40.0903 56.3853 42.7057 60.6733 42.5694 66.7261C42.4454 72.029 42.5445 77.3361 42.5486 82.6432C41.8958 83.4345 40.9704 83.3889 40.0987 83.3931C35.1186 83.4318 30.1412 83.4318 25.1667 83.3931C24.2907 83.3931 23.3652 83.4345 22.7165 82.6432C22.8735 72.7706 22.8074 74.8338 16.1058 68.4992C14.4531 66.9415 12.6725 65.5371 10.962 64.0456C9.02006 62.347 7.54499 60.4578 6.88392 57.7939C4.79742 49.3921 2.44655 41.0565 0.236093 32.6878C-0.590246 29.6054 0.562464 27.5588 3.61165 26.3781C5.70642 25.2595 8.12763 26.0301 9.54067 28.3004C10.2534 29.558 10.7835 30.9112 11.1149 32.319C12.1726 36.0974 13.569 39.7763 14.7176 43.5049C15.1308 44.8348 15.6927 45.3361 17.0768 44.6815C17.5724 44.4284 18.1171 44.2865 18.673 44.2657C19.2288 44.245 19.7824 44.3459 20.2954 44.5614V44.5614Z" fill="#DEDEDE"/>
<path d="M22.7044 82.6763H42.5365C43.6066 82.6432 44.2801 82.8006 44.2223 84.2382C44.0942 87.681 44.1479 91.132 44.2223 94.5955C44.2223 95.6396 43.9743 96.0414 42.8504 96.0331C36.0469 95.9889 29.2394 95.9889 22.4276 96.0331C21.3038 96.0331 21.0435 95.6188 21.06 94.5955C21.1096 91.1486 21.1674 87.6976 21.0352 84.2382C20.9732 82.784 21.6467 82.6266 22.7044 82.6763Z" fill="#505050"/>
<path d="M52.4511 82.6763H72.2832C73.3533 82.6432 74.0267 82.8006 73.973 84.2382C73.8408 87.681 73.8986 91.132 73.9482 94.5955C73.9482 95.6396 73.7004 96.0414 72.5808 96.0331C65.7717 95.9889 58.9625 95.9889 52.1535 96.0331C51.0338 96.0331 50.7696 95.6188 50.7861 94.5955C50.8357 91.1486 50.8935 87.6976 50.7613 84.2382C50.7034 82.784 51.3768 82.6266 52.4511 82.6763Z" fill="#505050"/>
<path d="M45.6504 45.9451C46.4767 45.6592 46.9602 44.9591 47.5345 44.3791C53.8091 38.1012 60.0796 31.8177 66.346 25.5287C68.0849 23.7873 69.363 21.6383 70.0645 19.2764C70.766 16.9146 70.8686 14.4146 70.3631 12.0029C69.8576 9.59121 68.76 7.34413 67.1697 5.46525C65.5794 3.58636 63.5467 2.13507 61.2558 1.24288C60.7683 1.04816 60.2848 0.828579 59.38 0.472287L61.2393 0.269287C66.6105 0.795439 70.4199 3.71206 72.7461 8.45986C75.2871 13.6468 74.7292 18.7343 71.5354 23.507C70.822 24.5168 70.0141 25.456 69.1226 26.3118C62.5394 32.9404 55.9425 39.5691 49.3318 46.1978C47.3816 48.1326 47.3816 48.1326 45.6504 45.9451Z" fill="#126F43"/>
<path d="M20.2941 44.5614C18.8067 45.0917 17.1044 44.7851 15.7492 45.9203C14.9849 46.5666 14.8981 45.651 14.7411 45.1911C13.408 41.2139 12.0858 37.2312 10.7746 33.2429C10.4524 32.2652 10.2334 31.2501 9.89464 30.2807C8.77082 27.0616 7.06023 26.0093 3.62266 26.3781C2.81698 23.2253 3.92838 20.7727 6.59332 19.8157C8.93186 18.9871 11.8448 20.0849 12.7249 22.5458C15.3526 29.8664 17.7861 37.2367 20.2941 44.5614Z" fill="#ABABAB"/>
<path d="M91.3637 26.3946C87.9262 26.03 86.1784 27.0658 85.1 30.3014C83.5341 34.9953 82.0302 39.71 80.5552 44.4329C80.1626 45.6758 79.8651 46.637 78.3447 45.4355C77.3159 44.6069 75.8656 45.1207 74.7129 44.5862C77.2208 37.2325 79.6709 29.854 82.278 22.55C83.1994 19.9896 85.9635 18.9539 88.3971 19.8281C91.062 20.7934 92.0744 23.0181 91.3637 26.3946Z" fill="#ABABAB"/>
<path d="M47.3831 31.3827C44.1934 31.3827 44.1933 31.3827 44.1933 28.1263C44.1933 24.7581 44.1933 24.7581 40.9128 24.7581C37.6322 24.7581 37.6074 24.7581 37.6074 21.4438C37.6074 18.1294 37.6076 18.1294 40.9584 18.1294C44.2141 18.1294 44.2141 18.1294 44.2141 14.9394C44.2141 11.5049 44.214 11.5049 47.635 11.5049C50.8206 11.5049 50.8206 11.5049 50.8206 14.7571C50.8206 18.1294 50.8206 18.1294 54.1053 18.1294C57.39 18.1294 57.4313 18.1294 57.4313 21.4438C57.4313 24.7581 57.4313 24.7581 54.0805 24.7581C50.8206 24.7581 50.8206 24.7581 50.8206 27.944C50.7999 31.3827 50.8 31.3827 47.3831 31.3827Z" fill="#F0F1F1"/>
<path d="M80.6461 48.4847C81.1791 51.2232 80.5551 52.9425 78.5347 54.1026C75.6177 55.7597 72.6554 57.3672 69.6971 58.9581C68.8708 59.4014 67.8337 60.1057 67.152 58.9581C66.3793 57.6655 67.4907 56.8659 68.4203 56.3273C71.2051 54.7033 74.0229 53.1373 76.8903 51.6582C78.357 50.9084 79.7206 50.0881 80.6461 48.4847Z" fill="#ABABAB"/>
<path d="M14.2702 48.7043C17.307 52.0394 21.6412 53.2823 25.2771 55.6355C25.963 56.0788 26.7685 56.3232 27.3635 56.9405C27.9585 57.5578 28.3594 58.1834 27.8842 58.9498C27.4091 59.7163 26.5993 59.6251 25.8845 59.244C23.8807 58.1875 21.8933 57.1062 19.9019 56.0249C18.8772 55.4656 17.869 54.8815 16.8485 54.318C14.5471 53.0461 13.8116 51.4594 14.2702 48.7043Z" fill="#ABABAB"/>
</g>
<defs>
<clipPath id="clip0_433_368">
<rect width="95" height="96" fill="white"/>
</clipPath>
</defs>
</svg>

<svg width="95" height="96" fill="none" xmlns="http://www.w3.org/2000/svg"><g clip-path="url(#a)"><path d="M45.652 45.945c-7.115-7.105-14.4-14.044-21.283-21.37-5.478-5.828-4.784-14.951 1.033-20.503A14.67 14.67 0 0 1 35.583 0c3.79.01 7.43 1.489 10.16 4.127 1.371 1.338 2.016 1.5 3.474.062C52.523.945 56.547-.542 61.241.27c-.372.734.35.568.607.676 10.544 4.424 12.164 18.336 4.71 25.234-6.35 5.879-12.271 12.226-18.415 18.333-.673.67-1.19 1.794-2.491 1.433Z" fill="#2ECC82"/><path d="M52.451 82.676V65.723c0-4.925 2.095-8.803 6.235-11.41 4.14-2.605 8.495-5.053 12.738-7.589 1.115-.667 2.185-1.413 3.272-2.125a3.781 3.781 0 0 1 3.198.124c1.384.659 1.925.14 2.363-1.177 1.434-4.3 2.777-8.633 4.161-12.95.533-1.658 1.269-3.232 2.892-4.085 1.302-.676 2.657-1.214 4.025-.1 3.036 1.168 4.197 3.228 3.388 6.28-2.372 8.937-4.793 17.865-7.181 26.797a6.307 6.307 0 0 1-1.98 3.062c-3.036 2.772-5.953 5.713-9.197 8.224-2.987 2.316-4.544 4.996-4.131 8.808.072 1.03.089 2.063.05 3.094-.65.792-1.575.746-2.45.75-4.978.039-9.955.039-14.933 0-.88-.02-1.801.025-2.45-.75ZM20.295 44.561c4.686 3.253 9.722 5.925 14.635 8.804 5.16 3.02 7.776 7.308 7.64 13.361-.125 5.303-.026 10.61-.021 15.917-.653.791-1.579.746-2.45.75-4.98.039-9.958.039-14.932 0-.876 0-1.802.041-2.45-.75.157-9.872.09-7.81-6.611-14.144-1.653-1.557-3.434-2.962-5.144-4.453-1.942-1.699-3.417-3.588-4.078-6.252C4.797 49.392 2.447 41.057.236 32.688c-.826-3.083.326-5.13 3.376-6.31C5.706 25.26 8.128 26.03 9.54 28.3a15.227 15.227 0 0 1 1.574 4.019c1.058 3.778 2.454 7.457 3.603 11.186.413 1.33.975 1.831 2.359 1.176a3.824 3.824 0 0 1 3.218-.12Z" fill="#DEDEDE"/><path d="M22.704 82.676h19.832c1.07-.033 1.744.125 1.686 1.562-.128 3.443-.074 6.894 0 10.358 0 1.044-.248 1.445-1.372 1.437-6.803-.044-13.61-.044-20.422 0-1.124 0-1.384-.414-1.368-1.438.05-3.446.107-6.897-.025-10.357-.062-1.454.612-1.611 1.67-1.562Zm29.747 0h19.832c1.07-.033 1.744.125 1.69 1.562-.132 3.443-.074 6.894-.025 10.358 0 1.044-.248 1.445-1.367 1.437a1573.45 1573.45 0 0 0-20.428 0c-1.12 0-1.383-.414-1.367-1.438.05-3.446.108-6.897-.025-10.357-.058-1.454.616-1.611 1.69-1.562Z" fill="#505050"/><path d="M45.65 45.945c.827-.286 1.31-.986 1.885-1.566 6.274-6.278 12.545-12.561 18.811-18.85a14.82 14.82 0 0 0 3.718-6.253 14.849 14.849 0 0 0-2.894-13.81 14.772 14.772 0 0 0-5.914-4.223c-.488-.195-.971-.414-1.876-.77l1.86-.204c5.37.526 9.18 3.443 11.506 8.19 2.541 5.188 1.983 10.275-1.21 15.048a19.424 19.424 0 0 1-2.413 2.805 13509.58 13509.58 0 0 1-19.791 19.886c-1.95 1.935-1.95 1.935-3.682-.253Z" fill="#126F43"/><path d="M20.294 44.561c-1.487.53-3.19.224-4.545 1.36-.764.646-.85-.27-1.008-.73-1.333-3.977-2.655-7.96-3.966-11.948-.323-.978-.542-1.993-.88-2.962-1.124-3.22-2.835-4.272-6.272-3.903-.806-3.153.305-5.605 2.97-6.562 2.339-.829 5.252.269 6.132 2.73 2.628 7.32 5.061 14.69 7.57 22.015Zm71.07-18.166c-3.438-.365-5.186.67-6.264 3.906a769.84 769.84 0 0 0-4.545 14.132c-.392 1.243-.69 2.204-2.21 1.002-1.03-.828-2.48-.314-3.632-.849 2.508-7.353 4.958-14.732 7.565-22.036.921-2.56 3.685-3.596 6.12-2.722 2.664.965 3.676 3.19 2.966 6.567Z" fill="#ABABAB"/><path d="M47.383 31.383c-3.19 0-3.19 0-3.19-3.257 0-3.368 0-3.368-3.28-3.368s-3.306 0-3.306-3.314c0-3.315 0-3.315 3.351-3.315 3.256 0 3.256 0 3.256-3.19 0-3.434 0-3.434 3.421-3.434 3.186 0 3.186 0 3.186 3.252 0 3.372 0 3.372 3.284 3.372 3.285 0 3.326 0 3.326 3.315 0 3.314 0 3.314-3.35 3.314-3.26 0-3.26 0-3.26 3.186-.021 3.439-.021 3.439-3.438 3.439Z" fill="#F0F1F1"/><path d="M80.646 48.485c.533 2.738-.09 4.458-2.111 5.618a435.06 435.06 0 0 1-8.838 4.855c-.826.443-1.863 1.148-2.545 0-.773-1.292.339-2.092 1.268-2.63a186.995 186.995 0 0 1 8.47-4.67c1.467-.75 2.83-1.57 3.756-3.173Zm-66.376.219c3.037 3.335 7.371 4.578 11.007 6.931.686.444 1.491.688 2.086 1.306.596.617.996 1.242.521 2.009-.475.766-1.285.675-2 .294-2.003-1.056-3.99-2.138-5.982-3.22-1.025-.558-2.033-1.142-3.053-1.706-2.302-1.272-3.037-2.859-2.579-5.614Z" fill="#ABABAB"/></g><defs><clipPath id="a"><path fill="#fff" d="M0 0h95v96H0z"/></clipPath></defs></svg>
